X:1
T:His Voice, as the Sound of the Dulcimer Sweet
T:His Voice, as the Sound of the Dulcimer Sweet
T:Southern Harmony, 1855
T:Public Domain Courtesy of the Cyber Hymnal™
T:Public Domain Courtesy of the Cyber Hymnal™
C:Southern Harmony, 1855
Z:Public Domain
Z:Courtesy of the Cyber Hymnal™
%%score 1 2 3
L:1/8
Q:1/4=107
M:2/4
K:C
V:1 treble 
V:2 treble 
V:3 bass 
V:1
 z2 e2 | c2 AG | A2 Bd | c2 BA | G2 A2 | G2 GA | B2 cB | A4 | z2 e-e | c2 AG | A2 Bd | c2 BA | %12
 G2 A2 | G2 GA | B2 cB | A4 | z2 c2 | e2 ef | g2 ge | c2 BA | B3 e | c2 AA | d2 cA || %23
[M:3/4] !fermata!B4 e2 ||[M:2/4] c2 AG | A2 Bd | c2 BA | G2 A2 | G2 GA | B2 cB | A4 |] %31
V:2
 z2 E2 | A2 AB | c2 BA | e2 ee | (dc) B2 | c2 BA | E2 GB | A4 | z2 E-E | A2 AB | c2 BA | e2 ee | %12
w: 1.~His|voice, as the|sound of the|dul- ci- mer|sweet, * is|heard through the|sha- dows of|death;|The *|ce- dars of|Le- ba- non|bow at His|
w: 2.~O!|Thou in whose|pre- sence my|soul takes de-|light, * on|Whom in af-|flic- tion I|call;|My *|com- fort by|day, and my|song in the|
w: 3.~O!|why should I|wan- der an|al- ien from|Thee, * and|cry in the|de- sert for|bread?|Thy *|foes will re-|joice when my|sor- rows they|
w: 4.~“What|is thy be-|lov- èd, thou|dig- ni- fied|fair? * What|ex- cel- lent|beau- ties hath|He?|His *|charms and per-|fec- tions be|pleased to de-|
w: 5.~The|ro- ses of|Sha- ron, the|li- lies that|grow * in~th’|vales, on the|banks of the|streams|On~His *|cheeks in the|beau- ty of|ex- cel- lence|
 (dc) B2 | c2 BA | E2 GB | A4 | z2 c2 | e2 ee | d2 dB | c2 dc | B3 c | A2 AA | A2 GF || %23
w: feet, * the|air is per-|fumed with His|breath.|His|lips as the|foun- tain of|righ- teous- ness|flow, that|wa- ters the|gar- den of|
w: night, * my|hope, my sal-|va- tion, my|all—|Where|dost Thou at|noon- tide re-|sort with Thy|sheep, to|feed on the|pas- tures of|
w: see, * and|smile at the|tears I have|shed.|Ye|daugh- ters of|Zi- on, de-|clare, have you|seen the|star that on|Is- ra- el|
w: clare, * that|we may em-|brace Him with|thee.”|This|is my Be-|lov- èd, His|form is di-|vine; His|vest- ments shed|o- dor a-|
w: blow; * His|eyes are as|qui- vers of|beams.|His|voice as the|sound of the|dul- ci- mer|sweet is|heard through the|sha- dows of|
[M:3/4] !fermata!E4 E2 ||[M:2/4] A2 AB | c2 BA | e2 ee | (dc) B2 | c2 BA | E2 GB | A4 |] %31
w: grace, From|which their sal-|va- tion the|Gen- tiles shall|know, * and|bask in the|smiles of His|face.|
w: love? Say,|why in the|val- ley of|death should I|weep, * or|’lone in the|wil- der- ness|rove?|
w: shone? Say|if in your|tents my be-|lov- èd hath|been, * and|where, with His|flock, is He|gone?|
w: round; The|locks on His|head are as|grapes on the|vine, * when|au- tumn with|plen- ty is|crowned.|
w: death; The|ce- dars of|Le- ba- non|bow at His|feet, * the|air is per-|fumed with His|breath.|
V:3
 z2 E,2 | A,2 CB, | A,2 G,F, | E,2 E,C, | G,2 E,2 | C,2 C,D, | E,2 E,E, | A,,4 | z2 E,-E, | %9
 A,2 CB, | A,2 G,F, | E,2 E,C, | G,2 E,2 | C,2 C,D, | E,2 E,E, | A,,4 | z2 A,2 | %17
 [C,C]2 [C,C][C,C] | G,2 G,G, | A,2 G,A, | E,3 E, | A,,2 E,E, | D,2 C,D, || %23
[M:3/4] !fermata!E,4 E,2 ||[M:2/4] A,2 CB, | A,2 G,F, | E,2 E,C, | G,2 E,2 | C,2 C,D, | E,2 E,E, | %30
 A,,4 |] %31

